X: 15103
T: Ghoid Iad Mo Bhean Uam An Raoir
R: strathspey
M: 4/4
K: Bminor
|:fede dBB2|dBAB AFF2|fede dBB2|AEFA B2B2:|
|:BBBA BBB2|AFEF DEFA|BBBA BBB2|AEFA B2B2:|

